X: 1
T: Cape Breton Wedding Reel #1
R: reel
Z: Robert Eckert irtrad-l 2001-02-25
D: (BOTL)
M: 4/4
L: 1/8
K: G
AB \
| AGEG AGEG | cdcA (3GGG Gc | A2cd edcG | ABcd e2eg \
| abag egdB | cAGA c2cd     | edcA GEcE | EDEG A4 :|
|: eg \
| ageg ageb | gede g2eg | agea gbed | cAcd e2eg \
| abag egdB | cAGA c2cd | edcA GEcE | EDEG A4 :|
